X:60
T:Farewell he - unattributed
%%VWML:SBG-1-2-873-0
F:http://www.vwml.org/record/SBG/1/2/873
Z:Original Sibelius transcriptions by M. & S. Graebe
M:3/4
I:linebreak $
K:D
V:1 treble nm="P1"
V:1
 Ad | f2 f2 eg | f2 d2 ce | d2 c2 BA | d4 Ad | f2 f2 eg |$ f2 d2 ce | d2 c2 fe | d4 | dc | %10
 B2 A2 GF | A2 A2 GF | E2 D2 FG |$ E4 | Bc | d2 d2 gf | e2 d2 cd | e4 d2 | f4 e2 | d4 x2 | %20
T:Farewell he - CJS annotation
F:http://www.vwml.org/record/SBG/1/2/873
Z:Original Sibelius transcriptions by M. & S. Graebe
M:3/4
I:linebreak $
K:D
V:1 treble nm="P1" snm="Voice"
V:1
 c d |"^rall." e2 d2 f e | d4 z2 | z6 | z6 | z6 | %6
w: Let him|go then Farewell _|he||||

